X:678
T:Farewell to Ireland
R:reel
D:Matt Molloy & Sean Keane: Contentment Is Wealth
Z:id:hn-reel-678
S:Henrik Norbeck <henrik.norbeck@MAILBOX.SWIPNET.SE> irtrad-l 2001-8-14
M:C|
K:D
D2 (3FED FAA2|f2df edB2|dBAF ~G3B|AF~F2 BE~E2|
D2 (3FED FAA2|f2df edB2|dBAF ~G3B|AGFD EFD2|
D2 (3FED FAA2|d2fd eB~B2|dBAF ~G3B|AF~F2 BE~E2|
D2 (3FED FAA2|f2df edB2|dBAF ~G3B|AGFD EFD2||
|:defg afdf|g2fg edBc|defg afdf|gefd ~e3f|
d2df ~a3f|g2fg edBc|dBAF ~G3B|1 AGFD EFD2:|2 AGFD EGFE||
